X: 40751
T: Touch Me If You Dare
R: reel
M: 4/4
K: Gmajor
dc|BG G2 AGEG|BG G2 (3Bcd gd|B3 G AGED|EAAG A2 GA|
BG G2 AGEG|BG G2 (3Bcd gd|B3G AGED|EGGF G2:|
|:dega bgag|egdg egdg|dega bgag|eaag a2 ge|
dega bgag|egdg egdg|B3 G AGED|EGGF G2:|

